public/DataCentersIcon.svg

<svg width='65' height='100' viewBox='0 0 65 100' fill='none' xmlns='http://www.w3.org/2000/svg'><g clip-path='url(#clip0_876_1993)'><path d='M13.7386 94.1195C13.0164 94.1271 12.3049 93.945 11.6751 93.5913C10.1016 92.7029 9.23535 90.8286 9.23535 88.3174V38.0619C9.3392 35.4996 10.0425 32.9973 11.2889 30.756C12.5353 28.5148 14.2899 26.5971 16.4118 25.157L48.3806 5.94089C50.4139 4.71851 52.3738 4.52132 53.8951 5.38151C55.4666 6.27189 56.3328 8.1442 56.3328 10.6554V60.9069C56.2288 63.4694 55.5251 65.9718 54.2784 68.2131C53.0317 70.4543 51.2766 72.3719 49.1543 73.8118L17.1865 93.0279C16.1566 93.6958 14.9653 94.073 13.7386 94.1195ZM51.8275 6.36647C50.8753 6.41213 49.9527 6.71268 49.1563 7.23672L17.1886 26.4528C13.632 28.5897 10.7395 33.7971 10.7395 38.0679V88.3195C10.7395 90.2652 11.3331 91.6727 12.4146 92.2854C13.4449 92.8679 14.8665 92.6768 16.4118 91.7451L48.3806 72.5291C51.9362 70.3932 54.8297 65.1847 54.8297 60.9149V10.6594C54.8297 8.71364 54.2341 7.30614 53.1546 6.69545C52.7487 6.47086 52.2913 6.35608 51.8275 6.36244V6.36647Z' fill='#1B69FF'/><path opacity='0.43' d='M4.50232 89.2566C3.7801 89.2642 3.06855 89.0821 2.43882 88.7284C0.865277 87.84 -0.000976562 85.9657 -0.000976562 83.4545V33.203C0.103101 30.6405 0.806752 28.1381 2.05347 25.8968C3.30019 23.6556 5.05521 21.738 7.17753 20.2981L39.1453 1.082C41.1796 -0.140378 43.1385 -0.337569 44.6597 0.522626C46.2313 1.41099 47.0975 3.28531 47.0975 5.79648V56.05C46.994 58.6127 46.2908 61.1154 45.0444 63.357C43.798 65.5986 42.0432 67.5166 39.921 68.957L7.95223 88.173C6.92098 88.8386 5.72895 89.213 4.50232 89.2566ZM42.5932 1.50355C41.6409 1.54902 40.7183 1.84958 39.922 2.3738L7.95323 21.5899C4.39768 23.7268 1.50415 28.9342 1.50415 33.204V83.4555C1.50415 85.4013 2.09975 86.8108 3.1793 87.4215C4.21055 88.004 5.62915 87.8129 7.17854 86.8812L39.1463 67.6652C42.7029 65.5293 45.5954 60.3208 45.5954 56.049V5.80051C45.5954 3.85475 45.0018 2.44524 43.9203 1.83455C43.5143 1.6104 43.0569 1.49629 42.5932 1.50355Z' fill='#1B69FF'/><path d='M25.4637 31.6561C21.6908 33.9238 18.6504 39.3938 18.6504 43.9171V94.1666C18.6504 98.6889 21.6898 100.505 25.4637 98.2372L57.4325 79.0211C61.2063 76.7534 64.2448 71.2834 64.2448 66.7611V16.5136C64.2448 11.9913 61.2053 10.1753 57.4325 12.443L25.4637 31.6561Z' fill='#FCFCFC' stroke='black' stroke-width='1.5'/><path d='M33.251 41.3467C32.0662 42.1613 31.0863 43.2392 30.3881 44.496C29.6899 45.7528 29.2923 47.1543 29.2266 48.5905V78.2818C29.2266 80.955 31.0224 82.0274 33.251 80.6873L52.1405 69.3348C53.3253 68.5204 54.3054 67.4425 55.0036 66.1856C55.7019 64.9288 56.0994 63.5273 56.1649 62.091V32.3987C56.1649 29.7276 54.37 28.6531 52.1405 29.9932L33.251 41.3467ZM33.251 43.5732L52.1405 32.2196C53.3478 31.4942 54.3086 32.0677 54.3086 33.5154V63.2078C54.2752 63.9816 54.0618 64.7369 53.6855 65.4138C53.3091 66.0907 52.7801 66.6706 52.1405 67.1073L33.251 78.4599C32.0436 79.1853 31.0828 78.6118 31.0828 77.1651V47.4727C31.1165 46.699 31.3299 45.9437 31.7063 45.2669C32.0826 44.59 32.6115 44.0101 33.251 43.5732ZM41.7666 43.0943V46.9556L38.8559 46.7745L37.9575 49.2444L40.7746 49.4457L37.9575 53.0323L38.8559 54.4227L41.7666 50.7425V54.6038L43.6248 53.486V49.6257L46.5365 49.8068L47.4339 47.3359L44.6169 47.1347L47.4339 43.549L46.5365 42.1576L43.6248 45.8379V41.9775L41.7666 43.0943ZM34.4905 63.6132C34.2143 63.7986 33.9861 64.0467 33.8245 64.3374C33.6629 64.6281 33.5725 64.953 33.5608 65.2853C33.5608 65.9161 33.9633 66.1576 34.4905 65.8397L50.2862 56.3483C50.5621 56.1628 50.79 55.9145 50.9514 55.6239C51.1129 55.3332 51.2031 55.0085 51.2149 54.6763C51.2149 54.0464 50.8124 53.805 50.2862 54.1219L34.4905 63.6132ZM34.4905 69.1809C34.2143 69.3662 33.9861 69.6144 33.8245 69.9051C33.6629 70.1957 33.5725 70.5206 33.5608 70.853C33.5608 71.4838 33.9633 71.7242 34.4905 71.4073L42.6962 66.4775C42.9721 66.292 43.2 66.0437 43.3614 65.753C43.5228 65.4624 43.6131 65.1377 43.6248 64.8054C43.6248 64.1746 43.2224 63.9342 42.6962 64.2511L34.4905 69.1809Z' fill='#27292B'/></g><defs><clipPath id='clip0_876_1993'><rect width='65' height='100' fill='white'/></clipPath></defs></svg>

<svg xmlns="http://www.w3.org/2000/svg" width="65" height="100" fill="none" viewBox="0 0 65 100"><g clip-path="url(#a)"><path fill="#1b69ff" d="M13.739 94.12a4.1 4.1 0 0 1-2.064-.529c-1.573-.888-2.44-2.762-2.44-5.274V38.062a16.4 16.4 0 0 1 7.177-12.905L48.38 5.941c2.033-1.222 3.993-1.42 5.514-.56 1.572.89 2.438 2.763 2.438 5.274v50.252a16.4 16.4 0 0 1-7.179 12.905L17.186 93.028a6.8 6.8 0 0 1-3.447 1.091M51.828 6.365a5.3 5.3 0 0 0-2.672.87L17.19 26.454c-3.557 2.137-6.45 7.344-6.45 11.615V88.32c0 1.945.594 3.353 1.676 3.965 1.03.583 2.452.392 3.997-.54L48.38 72.53c3.555-2.136 6.449-7.344 6.449-11.614V10.659c0-1.945-.596-3.353-1.675-3.964a2.67 2.67 0 0 0-1.328-.333z"/><path fill="#1b69ff" d="M4.502 89.257a4.1 4.1 0 0 1-2.063-.529c-1.574-.888-2.44-2.762-2.44-5.273V33.202a16.4 16.4 0 0 1 7.179-12.905L39.145 1.082C41.18-.14 43.138-.338 44.66.522c1.571.889 2.438 2.763 2.438 5.274V56.05a16.4 16.4 0 0 1-7.177 12.907L7.952 88.173a6.8 6.8 0 0 1-3.45 1.084M42.593 1.504a5.3 5.3 0 0 0-2.671.87L7.953 21.59c-3.555 2.137-6.449 7.344-6.449 11.614v50.252c0 1.945.596 3.355 1.675 3.965 1.032.583 2.45.392 4-.54l31.967-19.216c3.557-2.136 6.45-7.344 6.45-11.616V5.801c0-1.946-.594-3.356-1.676-3.966a2.66 2.66 0 0 0-1.327-.331" opacity=".43"/><path fill="#fcfcfc" stroke="#000" stroke-width="1.5" d="M25.464 31.656c-3.773 2.268-6.814 7.738-6.814 12.261v50.25c0 4.522 3.04 6.338 6.814 4.07l31.969-19.216c3.773-2.268 6.812-7.738 6.812-12.26V16.514c0-4.523-3.04-6.339-6.813-4.071z"/><path fill="#27292b" d="M33.251 41.347a9.3 9.3 0 0 0-4.024 7.243v29.692c0 2.673 1.795 3.745 4.024 2.405l18.89-11.352a9.3 9.3 0 0 0 4.024-7.244V32.399c0-2.671-1.795-3.746-4.024-2.406zm0 2.226 18.89-11.353c1.207-.726 2.168-.152 2.168 1.295v29.693a4.98 4.98 0 0 1-2.168 3.9L33.25 78.46c-1.207.725-2.168.152-2.168-1.295V47.473a4.99 4.99 0 0 1 2.168-3.9m8.516-.479v3.862l-2.911-.181-.898 2.47 2.817.2-2.817 3.587.898 1.39 2.91-3.68v3.862l1.859-1.118v-3.86l2.911.18.898-2.47-2.817-.201 2.817-3.586-.898-1.391-2.911 3.68v-3.86zm-7.277 20.52a2.1 2.1 0 0 0-.93 1.671c0 .631.403.873.93.555l15.796-9.492a2.1 2.1 0 0 0 .929-1.672c0-.63-.403-.871-.929-.554zm0 5.567a2.1 2.1 0 0 0-.93 1.672c0 .63.403.871.93.554l8.206-4.93a2.1 2.1 0 0 0 .929-1.672c0-.63-.403-.87-.929-.554z"/></g><defs><clipPath id="a"><path fill="#fff" d="M0 0h65v100H0z"/></clipPath></defs></svg>
